X:5512
T:Rejländer - Yrsnö (Mats Edén)
O:england
S:Groupa: Av Bara Farten / Vildhonung
M:2/4
L:1/16
K:C
A2GA A2GA|cBAF A2G2|A2GA F2EF|\
D2CD E4|A2GA A2GA|cBAF A2G2|F2EF c3B|
A2FA G4:||:A2Bc ABcd|e2g2 f3e|d2cd e2c2|\
BcBG A4:||:EAGE E2DC|EGFE F2ED|
DBAG A2GG|BBAG A2GF|\
EAGE E2DC|EGFE F2ED|DcBA B2AG|AGAB c4:|


